X: 36915
T: Shootin' The Bull
R: polka
M: 2/4
K: Adorian
|:eA Ad|ef gf|eA Ae|d2 dB|
eA Ad|ef gf|ef/e/ dB|1 A2 Ad:|2 A2 A2||
|:ea ag|ed dB|ea ag|ef g>f|
ea ag|ed dB|ef/e/ dB|1 A2 A2:|2 A2 Ad||

